X:1
T:Concerto
T:Concerto
T:Piano | No. 19 in F Major, K.459
T:Wolfgang Amadeus Mozart
C:Wolfgang Amadeus Mozart
%%score { ( 1 3 ) | ( 2 4 ) }
L:1/8
M:4/4
K:F
V:1 treble nm="Piano" snm="Pno."
V:3 treble 
V:2 treble 
V:4 treble 
V:1
 z8 | z8 | z8 | z8 | z8 | z8 | z8 | z8 | z8 | z8 | z8 | z8 | z8 | z8 | z8 | z8 | z8 | z8 | z8 | %19
 z8 | z8 | z8 | z8 | z8 | z8 | z8 | z8 | z8 | z8 | z8 | z8 | z8 | z8 | z8 | z8 | z8 | z8 | z8 | %38
 z8 | z8 | z8 | z8 | z8 | z8 | z8 | z8 | z8 | z8 | z8 | z8 | z8 | z8 | z8 | z8 | z8 | z8 | z8 | %57
 z8 | z8 | z8 | z8 | z8 | z8 | z8 | z8 | z8 | z8 | z8 | z8 | z8 | z8 | f2 f>f f2 f2 | %72
 c'2 c'2 c'3 (3(b/a/g/ | f2) f>f f2 f2 | e2 g2 z4 | f2 f>f f2 f2 | c'3 (3(b/a/g/ f3) (3(e/d/c/ | %77
 d2) B2 G2 c2 | F2 z2 z4 | (3A,CF (3AFC (3A,CF (3AFC | (3B,CE (3GEC (3B,CE (3GEC | %81
 (3A,DF (3AFD (3=B,DG (3=BGD | (3CEG (3cEC (3=BFD (3_BGE | (3A,CF (3AFC (3A,CF (3AFC | %84
 (3B,CE (3GEC (3A,DF (3AFD | (3G,DF (3GFD (3B,CE (3GEC | [A,CF]2 z2 z (FAc | fc a2) z (Acf | %88
 af c'2) z (cfa | c'af')!wedge!f' !wedge!f'!wedge!f'!wedge!f'!wedge!f' | (a2 g2) z (F,A,C | %91
 FC A2) z (A,CF | AF c2) z (FAc | fca)!wedge!a !wedge!a!wedge!a!wedge!a!wedge!a | (=B2 c2) z (Gce | %95
 g2) g2- ga/g/ f/e/d/c/ | (c=B) B3 (Bd>c) | (e>d) (f>e) g2 f2 | (_e2 =e2) z (Gce | g) z (g4 ^g2) | %100
 !wedge!a{/=b}(a/^g/ ac') !wedge!f{/=g}(f/e/ fa) | %101
 !wedge!d{/e}(d/^c/ df) !wedge!A{/=B}(A/^G/ A=c) | (3=BdG (3ceG (3dfG (3ceG | %103
 (3=BdG (3ceG (3dfG (3ceG | (3G=Bg (3Ac^f (3GBg (3Acf | [G=Bg]2 z2 z4 | z8 | z8 | z8 | z8 | %110
 a2 a>a a2 a2 | a2 (T^c'=b/c'/) (d'2 f'2) | (f'g) g>g g2 g2 | g2 (T=ba/b/) (c'2 e'2) | %114
 (e'f)(fd') (d'e)(ec') | (c'd)(db) (bc)(ca) | (aB)(Bg) (gA)(Af) | (fG)(Ge) (eF)(Fd) | %118
 (3z =B,D (3EDB, (3z A,C (3ECA, | (3z ^G,=B, (3EB,G, (3EB,G, (3ECA, | %120
 (3z =B,D (3EDB, (3z A,C (3ECA, | (3z ^G,=B, (3EB,G, (3EB,G, (3ECA, | %122
 (3z =B,D (3EDB, (3z A,C (3ECA, | (3z _A,=B, (3FB,A, (3_AFB, (3=BAD | (3z F_A (3cAF (3fcA (3_afc | %125
 (3z df (3gfd (3d'gf (3f'd'g | e'2 c'>c' c'2 c'2 | (^g2 a>)a a2 a2 | (c6 ed) | c2 z2 z4 | z8 | z8 | %132
 z8 | z8 | z8 | z8 | z8 | z4 z2 (^de) | c2 (^de) c2 (de) | !wedge!c!wedge!e (g3 ^f=fd) | %140
 (dc)(ed) (fe)(gf) | (e3 f/e/) [=Bd] z (f/g/e/f/ | d) z (f/g/e/f/ d) z (f/g/e/f/ | %143
 d)!wedge!f (b4 ag) | (gfed) d2 d2 | !wedge!d!wedge!f (a4 gf) | (fedc) c2 c2 | %147
 !wedge!c!wedge!e (g3 ^f=fd) | (3ceg (3c'e'd' (3c'=ba (3gfe | (3d=bg (3ec'g (3fd'g (3dbg | %150
 (3c'eg (3c'e'd' (3c'=ba (3gfe | (3d=bg (3ec'g (3fd'g (3dbg | (3z eg (3c'ge (3z gc' (3e'c'g | %153
 (3^fa^d' (3^g=be' (3fad' (3eb=d' | (3z ea (3^c'ae (3z ea (3=c'ae | (3df=b (3egc' (3dfb (3cg_b | %156
 (3z cf (3afc (3z cf (3afc | (3=Bd^g (3^cea (3Bdg (3Ae=g | (3Ad^f (3=Bdg (3Acf (3Gd=f | %159
 (3Gce (3Gc_e (3DAd (3DAc | (3z DG (3=BGD (3z EG (3cGE | (3z DA (3cAD (3z DG (3=BGD | %162
 (3ceg (3c'cc' (3c'=ba (3gfe | (3dfa (3d'dd' (3d'c'b (3agf | (3egb (3e'ee' (3e'd'c' (3bag | %165
 (3fac' (3f'ff' (3f'e'd' (3c'ba | (3bc'b (3agf (3efe (3dcB | Accc{dc=B} c2 z2 | z ccc{dc=B} c2 z2 | %169
 z c'c'c'{d'c'=b} c'2 z2 | z (=bc'^g aef^c) | (daAd) (c2 =B2) |!p! (3CEG (3ceg (3c'ge (3cGE | %173
 (3DFA (3dfa (3d'af (3dAF | (3EGB (3egb (3e'bg (3eBG | (3FAc (3fac' (3f'c'a (3fcA | %176
 (3BcB (3AGF (3EFE (3DCB, |[I:staff +1] (3A,G,F, (3E,F,G, (3F,G,A, (3G,A,B, | %178
 (3A,[I:staff -1]CF (3EFG (3FGA (3GAB | (3Acf (3efg (3fga (3gab | (3^gac' (3efa (3=Bcf (3^GAc | %181
 (3EFA (3=B,CF[K:bass] (3^G,A,C (3E,F,A, | (3z D,C (3DCD, (3z E,C (3ECE, | %183
 (3z F,C (3FCF, (3z ^F,C (3^FCF, |[K:treble] (3G,EG (3^G,E^G (3A,FA (3=B,=G=B | %185
 (3CAc (3D=Bd (3Ece (3Fdf | (3Geg (3Afa (3=Bg=b (3cac' | !trill(!Td'8({c'd')} | c'2 z2 z4 | z8 | %190
 z8 | z8 | z8 | z8 | z8 | z8 | z8 | z8 | z8 | z8 | z8 | z8 | z8 | z8 | z8 | z8 | z8 | z8 | z8 | %209
 z8 | [Acea]2 (3z =B,C (3z ^DE (3z ^GA | (3z =Bc (3z ^de (3z ^ga (3c'=ba | %212
 (3^g=bg (3d'ba (3gbg (3d'ba | (3^g=bg (3fbf (3ebe (3dbd | [cea]2 (3z =B,C (3z ^DE (3z ^GA | %215
 (3z =Bc (3z ^de (3z ^ga (3c'=ba | (3^g=bg (3d'ba (3gbg (3d'ba | (3^g=bg (3fbf (3ebe (3dbd | %218
 (3^cec (3ged (3cec (3ged | (3^cec (3BeB (3AeA (3GeG | (3^Fa^f (3c'ag (3faf (3c'ag | %221
 (3^faf (3^dad (3=dad (3cac | (3=Bd'=b (3f'd'c' (3bd'b (3f'd'c' | (3=bd'b (3^gd'g (3=gd'g (3fd'f | %224
 (3ege (3bgf (3ege (3bgf | (3ege (3_dgd (3cgc (3BgB | (3Ac'a (3_e'c'b (3ac'a (3e'c'b | %227
 (3ac'a (3_gc'g (3fc'f (3_ec'e | d2 d>d d2 d2 | d'8 | d2 d>d d2 d2 | d'8 | d2 d>d d2 d2 | %233
 (f'6 d'2) | (3^c'e'c' (3be'b (3ae'a (3ge'g | (3^faf (3=faf (3eae (3dad | %236
 (3^cec (3BeB (3AeA (3GeG | (3^FAF (3=FAF (3EAE (3DAD | (3^CEA (3DE^G (3CEA (3DEG | %239
 (3z Aa (3z ^G^g (3z Aa (3z Gg | a2 z2 z4 | z8 | z8 | z8 | z8 | z8 |!p! f2 f>f f2 f2 | %247
 c'2 c'2 c'3 (3(b/a/g/ | f2) f>f f2 f2 | e2 g2 z4 | f2 f>f f2 f2 | c'3 (3(b/a/g/ f3) (3(e/d/c/ | %252
 d2) B2 G2 c2 | F2 z2 z4 | z8 | z8 | z8 | z8 | z8 | z8 | z8 | z4!p! z (FAc | fc a2) z (Acf | %263
 af c'2) z (cfa | c'af')!wedge!f' !wedge!f'!wedge!f'!wedge!f'!wedge!f' | (a2 g2) z (F,A,C | %266
 FC A2) z (A,CF | AF c2) z (FAc | fca)!wedge!a !wedge!a!wedge!a!wedge!=B!wedge!B | %269
 (3cec (3gec (3=BdB (3fdB | (3cec (3gec (3=BdB (3fdB | (3cec' (3=Bd=b (3cec' (3Bdb | %272
 [cec']2 z2 z4 | z8 | z8 | z8 | z8 | d'2 d'>d' d'2 d'2 | d'2 (T^fe/f/) (g2 d'2) | %279
 (d'c') c'>c' c'2 c'2 | c'2 (Ted/e/) (f2 c'2) | (Tc'b) z b (Tba) z a | (Tag)(g^d') (d'f)(f=d') | %283
 (d'_e)(ec') (c'd)(db) | (bc)(ca) (aB)(Bg) | (3z EG (3AGE (3z DF (3AFD | %286
 (3z ^CE (3AEC (3AEC (3AFD | (3z EG (3AGE (3z DF (3AFD | (3z ^CE (3AEC (3AEC (3AFD | %289
 (3z EG (3AGE (3z DF (3AFD | (3z _DE (3BED (3_dBE (3edB | (3z FB (3_dBF (3fdB (3bfd | %292
 (3z Bc (3gcB (3bgc (3c'bg | a2 f'>f' f'2 f'2 | (^c'2 d'>)d' d'2 d'2 | (f6 ag) | f2 z2 z4 | z8 | %298
 z8 | z8 | z8 | z8 | z8 | z8 | z4 z2 (^ga) | f2 (^ga) f2 (ga) | !wedge!f!wedge!a (c'3 =b_bg) | %307
 (gf)(ag) (ba)(c'b) | (a3 b/a/) g z (b/c'/a/b/) | !wedge!g z (b/c'/a/b/) !wedge!g z (b/c'/a/b/) | %310
 !wedge!g!wedge!b (_e'4 d'c') | (c'bag) g2 g2 | !wedge!g!wedge!b (d'4 c'b) | (bagf) f2 f2 | %314
 !wedge!f!wedge!a (c'3 =b_bg) | (3fAc (3fag (3fed (3cBA | (3Gec (3Afc (3Bgc (3Gec | %317
 (3fAc (3fac' (3f'c'b (3agf | (3egc (3fac (3gbc (3egc | (3z cf (3afc (3z cf (3afc | %320
 (3=Bd^g (3^cea (3Bdg (3Ae=g | (3z Ad (3^fdA (3z Ad (3=fdA | (3GBe (3Acf (3GBe (3Fc^d | %323
 (3z FB (3dBF (3z fb (3d'bf | (3eg^c' (3^fad' (3egc' (3da=c' | (3dg=b (3egc' (3dfb (3cg_b | %326
 (3cfa (3cf_a (3Gdg (3Gdf | (3z Gc (3ecG (3z Ac (3fcA | (3z Gd (3fdG (3z Gc (3ecG | %329
 (3FAc (3fFf (3fed (3cBA | (3GBd (3gGg (3gf_e (3dcB | (3Ac_e (3aAa (3agf (3edc | %332
 (3Bdf (3bBb (3bag (3f_ed | (3cfa (3c'cc' (3bag (3f_ed | dfff{gfe} f2 z2 | z fff{gfe} f2 z2 | %336
 z fff{gfe} f2 z2 | z (ef^c dAB^F) | (GdDB) (F2 AG) | F2 z2 z2!p! (f2 | d2 B2 G2) z2 | %341
 z4 z2!p! !wedge!f(f | d)(dB)(B G2) z2 | z4 z2!f! ff' | dd'Bb GgEe | [egd']4 [Gce]4 | %346
 !wedge!f!wedge!c!wedge!d!wedge!f (F2 AG) | (3FAc (3fac' (3f'c'a (3fcA | %348
 (3GBd (3gbd' (3f'd'b (3gdB | (3Ac_e (3fac' (3f'c'a (3fec | (3Bdf (3bd'f' (3f'd'b (3fdB | %351
 (3c_ef (3ac'_e' (3f'e'c' (3afe | (3dcB (3ABc (3Bcd (3cd_e | (3dcB (3ABc (3Bcd (3cd_e | %354
 (3dfb (3abc' (3bc'd' (3c'd'_e' | (3d'f'a (3bd'e (3fb^c (3dfA | (3BdE (3FB^C (3DFA, (3B,D^F, | %357
 (G,FDF GFDF) | (A,F_EF AFEF) | (B,FDF BFDF) | (A,FCF AFCF) | (G,FDF GFDF) | A,FCF AFCF | %363
 =B,_AFA =BAFA | z2 [EGB]2 z2 [FA]2 | z2 [DFG]2 z2 [CEG]2 |{A} a3 (3(g/f/e/ d3) (3(c/B/A/ | %367
 B2) G2 E2 A2 | z2 [C_EA]2 z2 [B,DB]2 | z2 [CGB]2 z2 [CFA]2 | (3d^cd (3fef (3BAB (3dcd | %371
 (3G^FG (3BAB (3=FEF (3_AGA | C>C[K:bass] (3C,A,C (3D,B,D (3E,CE | %373
 (3F,DF[K:treble] (3G,EG (3A,FA (3B,GB | (3CAc (3^CA^c (3DBd (3E=ce | (3Fdf (3Geg (3Afa (3Bgb | %376
 (3cac' (3dbd' (3ec'e' (3fd'f' | !trill(!Tg8({fg)} | f2 z2 z4 | z8 | z8 | z8 | z8 | z8 | z8 | z8 | %386
 z8 | z8 | z8 | z8 | z8 |"^cadenza" !fermata!z4{/a} Tg3 f/g/ | f2 z2 z4 | z8 | z8 | z8 | z8 | z8 | %398
 z8 | z8 | z8 | z8 | z8 | z8 | z8 | z8 | z8 | z8 | z8 | z8 |] %410
V:2
 z8 | z8 | z8 | z8 | z8 | z8 | z8 | z8 | z8 | z8 | z8 | z8 | z8 | z8 | z8 | z8 | z8 | z8 | z8 | %19
 z8 | z8 | z8 | z8 | z8 | z8 | z8 | z8 | z8 | z8 | z8 | z8 | z8 | z8 | z8 | z8 | z8 | z8 | z8 | %38
 z8 | z8 | z8 | z8 | z8 | z8 | z8 | z8 | z8 | z8 | z8 | z8 | z8 | z8 | z8 | z8 | z8 | z8 | z8 | %57
 z8 | z8 | z8 | z8 | z8 | z8 | z8 | z8 | z8 | z8 | z8 | z8 | z8 | z8 | FcAc FcAc | EcBc EcBc | %73
 FcAc D=BGB | CGEc _BABG | FcAc FcAc | CBEB[K:bass] DFA,F | B,G,A,B, C=B,CC, | F,2 z2 z4 | %79
 [F,,F,]8 | [C,,C,]8 | [D,,D,]4 [G,,,G,,]4 | [C,,C,]8 | [F,,F,]8 | [C,,C,]4 [D,,D,]4 | %85
 [B,,,B,,]4 [C,,C,]4 | z2 F,2 F,,2 z2 | z2 F,2 F,,2 z2 | z2 F,2 F,,2 z2 | z8 | %90
[K:treble] (F2 E2) z4 |[K:bass] z2 F,2 F,,2 z2 | z2 F,2 F,,2 z2 | z8 |[K:treble] (F2 E2) z4 | %95
 EGEG EGEG | FGFG FGEG | DGEG FGDG | EGEG E2 z2 |[K:bass] E,CE,C E,CE,C |"^cresc." z4 A,4- | %101
 [A,D-]8 | D2 E2 =B,2 C2 | F2 E2 =B,2 C2 | ([=B,D]2 [C_E]2 [B,D]2 [CE]2) | [G,=B,D]2 z2 z4 | z8 | %107
 z8 | z8 | z8 |[K:treble] (3^CGA (3CGA (3CGA (3CGA | (3DFA (3EGA (3DFA (3CFA | %112
 (3=B,FG (3B,FG (3B,FG (3B,FG | (3CEG (3DFG (3CEG (3=B,EG | %114
[K:bass] (3A,EF (3=B,DF (3^G,B,E (3A,CE | (3^F,A,D (3G,B,D (3E,G,C (3=F,A,C | %116
 (3D,F,B, (3E,G,B, (3^C,E,A, (3D,F,A, | (3=B,,D,G, (3C,E,G, (3A,,C,F, (3B,,D,F, | ^G,,4 A,,4 | %119
 E,,8 | ^G,,4 A,,4 | E,,8 | ^G,,4 A,,4 | [D,,D,]8 | [C,,C,]8 | [=B,,,=B,,]8 | [C,,C,]2 z2 z4 | %127
 z2 [^F,_E]>[F,E] [F,E]2 [F,E]2 | E4 F4 | E2 C,2 z4 | z8 | z8 | z8 | z8 | z8 | z8 | z8 | %137
[K:treble] z4 z2 (^FG) | [CE]2 (^FG) [CE]2 (FG) | [CE]2 z2 z2 ([=B,FG]2 | %140
 [CEG]2)[K:bass] =B,2 C2 A,2 | G,6 z2 |[K:treble] [DF]2 z2 [DF]2 z2 | [DF]4 [^CE]4 | %144
 ([DF]2 [EG]2 [FA]2 [G_B]2) | [FA]4 [=B,D]4 | E4 F2 ^F2 | G2 E2 D2 =B,2 | C2 z2 z4 | %149
[K:bass] [G,,G,]8 | [C,C]2 z2 z4 | [G,,G,]8 | [C,C]2 z2 [C,C]2 z2 | %153
[K:treble] z2 ([E^G]2 [^FA]2 [G=B]2) | A2 z2 A,2 z2 | z2 ([CE]2 [DF]2 [EG]2) | %156
 F2 z2[K:bass] F,2 z2 | z2 ([A,^C]2 [=B,D]2 [CE]2 | [D^F]2) ([G,=B,]2 [A,C]2 [B,D]2) | %159
 [C,C]4 [^F,,^F,]4 | [F,,F,]4 [E,,E,]4 | [F,,F,]4 [G,,G,]4 | [E,G,C]8 | [F,A,C]8 | [G,B,C]8 | %165
 [F,A,]8 | [E,G,C]8 | F,2 G,2 A,2 E,2 | F,2 G,2 A,2 E,2 | F,2 G,2 A,2 E,2 | F,2 z2 z4 | %171
 z2 ([F,F]2 [G,E]2 [F,D]2) | [E,,E,]8 | [F,,F,]8 | [G,,G,]8 | [A,,A,]8 | [E,,E,]8 | %177
 F,,2 G,,2 A,,2 E,,2 | F,,2 G,,2 A,,2 E,2 | F,2 G,2 A,2 E,2 | [F,,F,]8 | z8 | [^F,,^F,]4 [G,,G,]4 | %183
 [^G,,^G,]4 [A,,A,]4 | [G,,G,]8 | z8 | z8 | (3G,=B,F (3G,B,F (3G,B,F (3G,B,F | E2 z2 z4 | z8 | z8 | %191
 z8 | z8 | z8 | z8 | z8 | z8 | z8 | z8 | z8 | z8 | z8 | z8 | z8 | z8 | z8 | z8 | z8 | z8 | z8 | %210
 [A,,,A,,]2 C,2 E,2 A,2 |[K:treble] C2 E2 A2 z2 | [=Bd]4 [Bd]4 | [E=Bd]2 z2 z4 | %214
[K:bass] [A,,,A,,]2 C,2 E,2 A,2 |[K:treble] C2 E2 A2 z2 | [=Bd]4 [Bd]4 | [E=Bd]2 z2 z4 | %218
 [EG]4 [EG]4 | [A,EG]2 z2 z4 |[K:bass] [A,C]4 [A,C]4 | [D,A,C]2 z2 z4 | [DF]4 [DF]4 | %223
 [G,DF]2 z2 z4 | [GB]4 [GB]4 | [CGB]2 z2 z4 | [C_E]4 [CE]4 | [F,C_E]2 z2 z4 | %228
[K:treble] (3B,DF (3^GFD (3B,DF (3GFD | (3B,DF (3^GFD (3B,DF (3GFD | (3A,DF (3AFD (3A,DF (3AFD | %231
 (3A,DF (3AFD (3A,DF (3AFD |[K:bass] (3^G,=B,D (3FDB, (3G,B,D (3FDB, | %233
 (3^G,=B,D (3FDB, (3G,B,D (3FDB, | z4 ^C4 | D2 A2 G2 F2 | E4[K:bass] ^C,4 | D,2 A,2 G,2 F,2 | %238
 E,2 B,2 A,2 B,2 | ^C2 D2 C2 D2 | [A,^C]2 z2 z4 | z8 | z8 | z8 | z8 | z8 |[K:treble] FcAc FcAc | %247
 EcBc EcBc | FcAc D=BGB | CGEc BABG | FcAc FcAc | CBEB DFA,F |[K:bass] B,G,A,B, C=B,CC, | %253
 F,2 z2 z4 | z8 | z8 | z8 | z8 | z8 | z8 | z8 | z8 | z2 F,2 F,,2 z2 | z2 F,2 F,,2 z2 | z8 | %265
[K:treble] (F2 E2) z4 |[K:bass] z2 F,2 F,,2 z2 | z2 F,2 F,,2 z2 | z4 z2 [G,DF]2 | %269
[K:treble] [CE]4 [CF_A]4 | [CEG]4 [CF_A]4 | [EG]2 [F_A]2 [EG]2 [FA]2 | [CEG]2 z2 z4 | z8 | z8 | %275
 z8 | z8 | (3^Fcd (3Fcd (3Fcd (3Fcd | (3GBd (3Acd (3GBd (3FBd | (3EBc (3EBc (3EBc (3EBc | %280
 (3FAc (3GBc (3FAc (3EAc | (3DAB (3EGB (3^CEA (3DFA | (3=B,DG (3C^DG (3A,CF (3_B,=DF | %283
[K:bass] (3G,B,_E (3A,CE (3^F,A,D (3G,B,D | (3E,G,C (3F,A,C (3D,F,B, (3E,G,B, | ^C,4 D,4 | A,,8 | %287
 ^C,4 D,4 | A,,8 | ^C,4 D,4 | [G,,G,]8 | [F,,F,]8 | [E,,E,]8 | [F,,F,]2 z2 z4 | %294
[K:treble] z2 [=B,_A]>[B,A] [B,A]2 [B,A]2 | A4 B4 | A2 F,2 z4 | z8 | z8 | z8 | z8 | z8 | z8 | z8 | %304
 z4 z2 (=Bc) | [FA]2 (=Bc) [FA]2 (Bc) | [FA]2 z2 z2 (([E_Bc]2 | [FAc]2)) E2 F2 D2 | C6 z2 | %309
 [GB]2 z2 [GB]2 z2 | ([GB]4 [^FA]4) | ([GB]2 [Ac]2 [Bd]2 [c_e]2) | ([Bd]4 [EG]4) | A4 B2 =B2 | %314
 c2 A2 G2 E2 | F2 z2 z4 |[K:bass] [C,,C,]8 | [F,,F,]2 z2 z4 | [C,,C,]8 | [F,,F,]2 z2 [F,,F,]2 z2 | %320
 z2 ([A,^C]2 [=B,D]2 [CE]2) | D2 z2 D,2 z2 | z2 ([F,A,]2 [G,_B,]2 [A,C]2) | B,2 z2 B,,2 z2 | %324
[K:treble] z2 ([D^F]2 [EG]2 [FA]2) | [G=B]2 ([CE]2 [DF]2 [EG]2) |[K:bass] [F,F]4 [=B,,=B,]4 | %327
 [B,,B,]4 [A,,A,]4 | [B,,B,]4 [C,C]4 | [A,,C,F,]8 | [B,,D,F,]8 | [C,_E,F,]8 | [D,F,]8 | %333
 [A,,C,F,]8 | B,,2 C,2 D,2 A,,2 | B,,2 C,2 D,2 A,,2 | B,,2 C,2 D,2 A,,2 | B,,2 z2 z4 | %338
 z2 ([B,,G,]2 ([C,A,]2 [^C,B,]2)) | A,2 z2 z2 (F2 | D2 B,2 G,2) z2 | z4 z2 F2 | D2 B,2 G,2 z2 | %343
 z4 z2 F2 | D2 B,2 G,2 E,2 | [B,,,B,,]4 [B,,B,]4 | A,,2 B,,2 (A,2 B,2) | [A,,A,]8 | [B,,B,]8 | %349
 [C,C]8 | [D,D]8 | [A,,A,]8 | B,,2 C,2 D,2 A,,2 | B,,2 C,2 D,2 A,2 | B,2 C2 D2 A,2 | [B,,B,]8 | %356
 [B,,,B,,]8- | [B,,,B,,]8 | [C,,C,]8 | [D,,D,]8 | [C,,C,]8 | [=B,,,=B,,]8 | [C,,C,]8 | [_D,,_D,]8 | %364
 [C,,C,]2 z2 [D,,D,]2 z2 | [B,,,B,,]2 z2 [C,,C,]2 z2 |[K:treble] [A,^CG]4 [B,DF]4 | %367
 [G,DE]4 [A,^C]4 |[K:bass] [F,,F,]2 z2 [G,,G,]2 z2 | [_E,,_E,]2 z2 [F,,F,]2 z2 | [B,,D,F,]8 | %371
 [B,,_D,E,G,]4 [=B,,=D,F,_A,]4 | C,,8 | z8 | z8 | z8 | z8 |[K:treble] (3CEB (3CEB (3CEB (3CEB | %378
 [FA]2 z2 z4 | z8 | z8 | z8 | z8 | z8 | z8 | z8 | z8 | z8 | z8 | z8 | z8 | !fermata!z4 [CEB]4 | %392
 [FA]2 z2 z4 | z8 | z8 | z8 | z8 | z8 | z8 | z8 | z8 | z8 | z8 | z8 | z8 | z8 | z8 | z8 | z8 | %409
 z8 |] %410
V:3
 x8 | x8 | x8 | x8 | x8 | x8 | x8 | x8 | x8 | x8 | x8 | x8 | x8 | x8 | x8 | x8 | x8 | x8 | x8 | %19
 x8 | x8 | x8 | x8 | x8 | x8 | x8 | x8 | x8 | x8 | x8 | x8 | x8 | x8 | x8 | x8 | x8 | x8 | x8 | %38
 x8 | x8 | x8 | x8 | x8 | x8 | x8 | x8 | x8 | x8 | x8 | x8 | x8 | x8 | x8 | x8 | x8 | x8 | x8 | %57
 x8 | x8 | x8 | x8 | x8 | x8 | x8 | x8 | x8 | x8 | x8 | x8 | x8 | x8 | x8 | x8 | x8 | x8 | x8 | %76
 x8 | F6 E2 | x8 | x8 | x8 | x8 | x8 | x8 | x8 | x8 | x8 | x8 | x8 | x8 | x8 | x8 | x8 | x8 | x8 | %95
 x8 | x8 | x8 | x8 | x8 | x8 | x8 | x8 | x8 | x8 | x8 | x8 | x8 | x8 | x8 | x8 | x8 | x8 | x8 | %114
 x8 | x8 | x8 | x8 | x8 | x8 | x8 | x8 | x8 | x8 | x8 | x8 | x8 | x8 | x6 =B2 | x8 | x8 | x8 | x8 | %133
 x8 | x8 | x8 | x8 | x8 | x8 | x8 | x2 G4 c2 | c4 x4 | x8 | x8 | x8 | x8 | x8 | x8 | x8 | x8 | x8 | %151
 x8 | x8 | x8 | x8 | x8 | x8 | x8 | x8 | x8 | x8 | x8 | x8 | x8 | x8 | x8 | x8 | x8 | x8 | x8 | %170
 x8 | x8 | x8 | x8 | x8 | x8 | x8 | x8 | x8 | x8 | x8 | x4[K:bass] x4 | x8 | x8 |[K:treble] x8 | %185
 x8 | x8 | x8 | x8 | x8 | x8 | x8 | x8 | x8 | x8 | x8 | x8 | x8 | x8 | x8 | x8 | x8 | x8 | x8 | %204
 x8 | x8 | x8 | x8 | x8 | x8 | x8 | x8 | x8 | x8 | x8 | x8 | x8 | x8 | x8 | x8 | x8 | x8 | x8 | %223
 x8 | x8 | x8 | x8 | x8 | x8 | x8 | x8 | x8 | x8 | x8 | x8 | x8 | x8 | x8 | x8 | x8 | x8 | x8 | %242
 x8 | x8 | x8 | x8 | x8 | x8 | x8 | x8 | x8 | x8 | F6 E2 | x8 | x8 | x8 | x8 | x8 | x8 | x8 | x8 | %261
 x8 | x8 | x8 | x8 | x8 | x8 | x8 | x8 | x8 | x8 | x8 | x8 | x8 | x8 | x8 | x8 | x8 | x8 | x8 | %280
 x8 | x8 | x8 | x8 | x8 | x8 | x8 | x8 | x8 | x8 | x8 | x8 | x8 | x8 | x8 | x6 e2 | x8 | x8 | x8 | %299
 x8 | x8 | x8 | x8 | x8 | x8 | x8 | x8 | x2 c4 f2 | f4 e x3 | x8 | x8 | x8 | x8 | x8 | x8 | x8 | %316
 x8 | x8 | x8 | x8 | x8 | x8 | x8 | x8 | x8 | x8 | x8 | x8 | x8 | x8 | x8 | x8 | x8 | x8 | x8 | %335
 x8 | x8 | x8 | x8 | x8 | x8 | x8 | x8 | x8 | x8 | x8 | x8 | x8 | x8 | x8 | x8 | x8 | x8 | x8 | %354
 x8 | x8 | x8 | x8 | x8 | x8 | x8 | x8 | x8 | x8 | x8 | x8 | x8 | x8 | x8 | x8 | x8 | x8 | %372
 x2[K:bass] x6 | x2[K:treble] x6 | x8 | x8 | x8 | x8 | x8 | x8 | x8 | x8 | x8 | x8 | x8 | x8 | x8 | %387
 x8 | x8 | x8 | x8 | x8 | x8 | x8 | x8 | x8 | x8 | x8 | x8 | x8 | x8 | x8 | x8 | x8 | x8 | x8 | %406
 x8 | x8 | x8 | x8 |] %410
V:4
 x8 | x8 | x8 | x8 | x8 | x8 | x8 | x8 | x8 | x8 | x8 | x8 | x8 | x8 | x8 | x8 | x8 | x8 | x8 | %19
 x8 | x8 | x8 | x8 | x8 | x8 | x8 | x8 | x8 | x8 | x8 | x8 | x8 | x8 | x8 | x8 | x8 | x8 | x8 | %38
 x8 | x8 | x8 | x8 | x8 | x8 | x8 | x8 | x8 | x8 | x8 | x8 | x8 | x8 | x8 | x8 | x8 | x8 | x8 | %57
 x8 | x8 | x8 | x8 | x8 | x8 | x8 | x8 | x8 | x8 | x8 | x8 | x8 | x8 | x8 | x8 | x8 | x8 | x8 | %76
 x4[K:bass] x4 | x8 | x8 | x8 | x8 | x8 | x8 | x8 | x8 | x8 | x8 | x8 | x8 | x8 |[K:treble] C4 x4 | %91
[K:bass] x8 | x8 | x8 |[K:treble] G,2 C2 x4 | C8 | D6 C2 | =B,2 C2 D2 B,2 | C6 x2 |[K:bass] x8 | %100
 F,8- | F,4 ^F,4 | G,8 | G,8 | G,8 | x8 | x8 | x8 | x8 | x8 |[K:treble] x8 | x8 | x8 | x8 | %114
[K:bass] x8 | x8 | x8 | x8 | x8 | x8 | x8 | x8 | x8 | x8 | x8 | x8 | x8 | x8 | G,8 | C2 x2 x4 | %130
 x8 | x8 | x8 | x8 | x8 | x8 | x8 |[K:treble] x8 | x8 | x8 | x2[K:bass] x6 | x8 |[K:treble] x8 | %143
 x8 | x8 | x8 | C2 B,2 A,2 _A,2 | G,8 | C2 x2 x4 |[K:bass] x8 | x8 | x8 | x8 |[K:treble] x8 | x8 | %155
 x8 | x4[K:bass] x4 | x8 | x8 | x8 | x8 | x8 | x8 | x8 | x8 | x8 | x8 | x8 | x8 | x8 | x8 | x8 | %172
 x8 | x8 | x8 | x8 | x8 | x8 | x8 | x8 | x8 | x8 | x8 | x8 | x8 | x8 | x8 | x8 | C2 x2 x4 | x8 | %190
 x8 | x8 | x8 | x8 | x8 | x8 | x8 | x8 | x8 | x8 | x8 | x8 | x8 | x8 | x8 | x8 | x8 | x8 | x8 | %209
 x8 | x8 |[K:treble] x8 | E2 F2 E2 F2 | x8 |[K:bass] x8 |[K:treble] x8 | E2 F2 E2 F2 | x8 | %218
 A,2 B,2 A,2 B,2 | x8 |[K:bass] D,2 _E,2 D,2 E,2 | x8 | G,2 _A,2 G,2 A,2 | x8 | C2 _D2 C2 D2 | x8 | %226
 F,2 _G,2 F,2 G,2 | x8 |[K:treble] x8 | x8 | x8 | x8 |[K:bass] x8 | x8 | A,8- | A,8- | %236
 A,4[K:bass] A,,4- | A,,8- | A,,2 B,,2 A,,2 B,,2 | A,2 B,2 A,2 B,2 | x8 | x8 | x8 | x8 | x8 | x8 | %246
[K:treble] x8 | x8 | x8 | x8 | x8 | x8 |[K:bass] x8 | x8 | x8 | x8 | x8 | x8 | x8 | x8 | x8 | x8 | %262
 x8 | x8 | x8 |[K:treble] C4 x4 |[K:bass] x8 | x8 | x8 |[K:treble] x8 | x8 | C8 | x8 | x8 | x8 | %275
 x8 | x8 | x8 | x8 | x8 | x8 | x8 | x8 |[K:bass] x8 | x8 | x8 | x8 | x8 | x8 | x8 | x8 | x8 | x8 | %293
 x8 |[K:treble] x8 | C8 | F2 x2 x4 | x8 | x8 | x8 | x8 | x8 | x8 | x8 | x8 | x8 | x8 | x8 | x8 | %309
 x8 | x8 | x8 | x8 | F2 _E2 D2 _D2 | C8 | F2 x2 x4 |[K:bass] x8 | x8 | x8 | x8 | x8 | x8 | x8 | %323
 x8 |[K:treble] x8 | x8 |[K:bass] x8 | x8 | x8 | x8 | x8 | x8 | x8 | x8 | x8 | x8 | x8 | x8 | %338
 x2 x6 | D,2 x2 x4 | x8 | x8 | x8 | x8 | x8 | x8 | x4 C,4 | x8 | x8 | x8 | x8 | x8 | x8 | x8 | x8 | %355
 x8 | x8 | x8 | x8 | x8 | x8 | x8 | x8 | x8 | x8 | x8 |[K:treble] x8 | x8 |[K:bass] x8 | x8 | x8 | %371
 x8 | x8 | x8 | x8 | x8 | x8 |[K:treble] x8 | x8 | x8 | x8 | x8 | x8 | x8 | x8 | x8 | x8 | x8 | %388
 x8 | x8 | x8 | x8 | x8 | x8 | x8 | x8 | x8 | x8 | x8 | x8 | x8 | x8 | x8 | x8 | x8 | x8 | x8 | %407
 x8 | x8 | x8 |] %410

